dest/img/logo_header-7.svg

<?xml version="1.0" encoding="UTF-8"?>
<!DOCTYPE svg PUBLIC "-//W3C//DTD SVG 1.1//EN" "http://www.w3.org/Graphics/SVG/1.1/DTD/svg11.dtd">
<!-- Creator: CorelDRAW 2021 (64-Bit) -->
<svg xmlns="http://www.w3.org/2000/svg" xml:space="preserve" width="669px" height="669px" version="1.1" style="shape-rendering:geometricPrecision; text-rendering:geometricPrecision; image-rendering:optimizeQuality; fill-rule:evenodd; clip-rule:evenodd"
viewBox="0 0 669 669"
 xmlns:xlink="http://www.w3.org/1999/xlink"
 xmlns:xodm="http://www.corel.com/coreldraw/odm/2003">
 <defs>
  <font id="FontID0" horiz-adv-x="747" font-variant="normal" style="fill-rule:nonzero" font-style="normal" font-weight="400">
	<font-face 
		font-family="Stolzl">
		<font-face-src>
			<font-face-name name="Stolzl-Regular"/>
		</font-face-src>
	</font-face>
   <missing-glyph><path d="M0 0z"/></missing-glyph>
   <glyph unicode="&amp;" horiz-adv-x="721" d="M680.006 0c-45.0003,47.0052 -86.0018,88.9982 -123.005,128.006 39.0075,54.0004 63.0004,121 71.009,191.998l-115.007 0c-6.99521,-43.9979 -19.0026,-79.9981 -34.9978,-110.997 -54.0004,55.9943 -97.0067,100.995 -131.002,137.997 86.0018,51.9955 151.999,104.002 151.999,195.005 0,106.998 -84.9994,169.999 -189.001,169.999 -101.997,0 -196.999,-60.0041 -196.999,-176.002 0,-47.9967 18.0001,-92.0055 73.9945,-162.001 -90.9922,-55.0028 -145.995,-101.997 -145.995,-191.998 0,-131.002 106.998,-194.003 240.005,-194.003 79.9981,0 149.002,24.9953 203.994,65.9968 16.0062,-18.0001 34.0063,-34.9978 52.0064,-54.0004l142.999 0zm-371.007 608.006c49.01,0 76.0102,-28.0026 76.0102,-66.9993 0,-41.0015 -27.0002,-65.9968 -108.001,-115.998 -38.0051,47.9967 -50.0016,74.9969 -50.0016,104.002 0,51.9955 33.9954,78.9957 81.9921,78.9957zm-20.9965 -516c-87.0042,0 -132.996,37.9942 -132.996,92.997 0,43.9979 31.9905,68.0017 100.995,109.003 41.0015,-45.0003 92.0055,-98.0092 155.006,-164.006 -36.0003,-25.9978 -78.0042,-37.9942 -123.005,-37.9942z"/>
   <glyph unicode="B" horiz-adv-x="656" d="M499.998 374c63.0009,29 93.0003,74.9995 93.0003,145.999 0,114.999 -77.0003,179.998 -213,179.998l-297.999 0 0 -699.998 302.001 0c146.999,0 231.998,74.9995 231.998,197.999 0,84.9993 -36.9991,152 -116,176.001zm-20.999 127.999c0,-56.9987 -29.9994,-90.0002 -112.001,-90.0002l-171.999 0 0 180 171 0c80.9998,0 113,-29 113,-90.0002zm-97.9993 -394l-186.001 0 0 200 184.999 0c92.0009,0 122,-36.9991 122,-100.999 0,-60.0008 -29,-99.0006 -120.999,-99.0006z"/>
   <glyph unicode="a" horiz-adv-x="672" d="M493.998 549.998l0 -93.9996c-39.9984,63 -105.998,106.001 -192.998,106.001 -144,0 -253.001,-119 -253.001,-287 0,-168 107.002,-287 253.999,-287 86.0016,0 152.001,41.002 192,104.002l0 -92.0008 113.001 0 0 549.998 -113.001 0zm-168 -453.999c-94.9976,0 -163.997,72.9996 -163.997,179 0,105 67.9984,179 163.997,179 96.0012,0 169.001,-74.0004 169.001,-179 0,-106.001 -72.9996,-179 -169.001,-179z"/>
   <glyph unicode="d" horiz-adv-x="679" d="M501.007 770.007l0 -314c-41.0015,63.0004 -106.998,105.996 -194.003,105.996 -144.001,0 -253.004,-118.995 -253.004,-287 0,-168.005 106.998,-287 254.007,-287 86.0018,0 151.999,41.993 193,104.002l0 -92.0055 113.002 0 0 770.007 -113.002 0zm-169.007 -674.002c-95.0019,0 -163.995,72.992 -163.995,178.999 0,105.004 68.0017,178.999 163.995,178.999 96.0043,0 169.007,-73.9945 169.007,-178.999 0,-106.007 -73.0029,-178.999 -169.007,-178.999z"/>
   <glyph unicode="e" horiz-adv-x="654" d="M332 562.003c-166,0 -284.003,-122.002 -284.003,-288.002 0,-166 119.006,-285.997 286.008,-285.997 117.001,0 222.005,57.9992 265.001,180.993l-117.001 0c-25.9978,-54.0004 -81.0006,-81.9921 -146.997,-81.9921 -92.0055,0 -163.004,55.9943 -172.004,157l447.007 0c10.994,181.004 -101.006,317.999 -278.01,317.999zm0 -97.9983c83.0054,0 140.002,-52.998 157,-128.006l-320.003 0c19.0026,74.0054 77.0018,128.006 163.004,128.006z"/>
   <glyph unicode="g" horiz-adv-x="673" d="M494.001 550.006l0 -93.9995c-39.9991,63.0004 -106.998,105.996 -191.998,105.996 -145.003,0 -254.007,-118.995 -254.007,-284.003 0,-164.998 107.009,-284.003 254.007,-284.003 84.9994,0 150.996,42.0039 191.998,103l0 -93.9995c0,-106.998 -54.9919,-163.995 -155.997,-163.995 -74.0054,0 -135.001,32.993 -154.004,104.002l-117.001 0c24.0038,-137.006 142.999,-205.008 274.001,-205.008 163.004,0 266.003,105.004 266.003,268.999l0 543.011 -113.002 0zm-167.994 -448.009c-95.0019,0 -164.006,73.0029 -164.006,176.002 0,102.008 68.0017,176.002 164.006,176.002 95.9934,0 168.996,-73.9945 168.996,-176.002 0,-103 -73.0029,-176.002 -168.996,-176.002z"/>
   <glyph unicode="i" horiz-adv-x="244" d="M122.002 798.009c-41.0015,0 -73.0029,-29.005 -73.0029,-69.0041 0,-41.0015 32.0014,-70.9981 73.0029,-70.9981 42.9955,0 73.9945,29.9966 73.9945,70.9981 0,39.9991 -30.999,69.0041 -73.9945,69.0041zm-56.0052 -798.009l113.002 0 0 550.006 -113.002 0 0 -550.006z"/>
   <glyph unicode="l" horiz-adv-x="243" d="M67.0004 0l113.999 0 0 769.997 -113.999 0 0 -769.997z"/>
   <glyph unicode="n" horiz-adv-x="621" d="M362.999 561.999c-86.0016,0 -145.001,-39.0004 -183.999,-103.001l0 91 -113.001 0 0 -549.998 113.001 0 0 284.998c0,106.001 51.9996,169.001 148.999,169.001 82.9992,0 119.998,-44.9996 119.998,-130l0 -323.999 113.001 0 0 346.998c0,134.001 -74.0004,215.001 -197.999,215.001z"/>
   <glyph unicode="o" horiz-adv-x="665" d="M333.002 562.003c-157,0 -285.006,-121 -285.006,-287 0,-164.006 126.001,-287 285.006,-287 160.007,0 285.006,122.002 285.006,287 0,166 -127.003,287 -285.006,287zm0 -108.001c95.0019,0 171.001,-73.0029 171.001,-178.999 0,-106.007 -74.9969,-178.999 -171.001,-178.999 -96.0043,0 -171.001,72.992 -171.001,178.999 0,105.996 75.9993,178.999 171.001,178.999z"/>
   <glyph unicode="s" horiz-adv-x="583" d="M308.998 -12.0012c130,0 236.001,58.0016 236.001,176.001 0,106.999 -86.0016,133 -235,168 -95.9984,22.9988 -130,32.0004 -130,66.9976 0,38.0024 43.0008,63 116,63 70,0 112,-21.998 127.999,-66.9976l114.002 0c-20.002,99.9988 -99.0008,166.999 -240.002,166.999 -137.998,0 -231.998,-64.0008 -231.998,-175 0,-92.0008 64.9988,-123 218.999,-161 92.0008,-22.0008 144,-29.0008 144,-74.9984 0,-41.002 -44.9996,-63 -117.999,-63 -95.0004,0 -140,28 -157,88.9984l-115 0c21,-119 124.999,-189 269.998,-189z"/>
   <glyph unicode="t" horiz-adv-x="521" d="M464.004 119.997c-42.9955,-14.9928 -82.003,-27.0002 -117.001,-27.0002 -70.9981,0 -108.001,44.0088 -108.001,124.007l0 226.996 226.004 0 0 106.007 -226.004 0 0 150.005 -113.002 -25.0062 0 -124.998 -101.997 0 0 -106.007 101.997 0 0 -232.999c0,-151.999 87.9958,-222.997 200.998,-222.997 63.0004,0 127.003,21.9989 157.011,39.9991l-20.005 91.9946z"/>
   <glyph unicode="u" horiz-adv-x="616" d="M439.009 550.006l0 -285.006c0,-105.996 -53.0088,-168.996 -147.008,-168.996 -82.003,0 -118.003,45.0003 -118.003,130l0 324.002 -113.002 0 0 -347.004c0,-133.999 73.0029,-214.999 195.005,-214.999 84.9994,0 144.001,39.9991 183.009,103l0 -91.0031 112.991 0 0 550.006 -112.991 0z"/>
   <glyph unicode="v" horiz-adv-x="581" d="M437.004 550.006l-146.997 -432.003 -146.006 432.003 -119.997 0 198.001 -550.006 136.995 0 198.001 550.006 -119.997 0z"/>
   <glyph unicode="z" horiz-adv-x="542" d="M182.998 106.998l315.002 336.01 0 106.998 -441.003 0 0 -106.998 296.011 0 -314.011 -336.01 0 -106.998 464.004 0 0 106.998 -320.003 0z"/>
  </font>
  <style type="text/css">
   <![CDATA[
    @font-face { font-family:"Stolzl";font-variant:normal;font-style:normal;font-weight:normal;src:url("#FontID0") format(svg)}
    .fil0 {fill:#FEFEFE}
    .fil2 {fill:#2B2A29}
    .fil3 {fill:#2B2A29}
    .fil1 {fill:#E31E24}
    .fnt1 {font-weight:normal;font-size:36.117px;font-family:'Stolzl'}
    .fnt0 {font-weight:normal;font-size:139.984px;font-family:'Stolzl'}
    .fnt2 {font-weight:normal;font-size:200.822px;font-family:'Stolzl'}
   ]]>
  </style>
 </defs>
 <g id="Слой_x0020_1">
  <metadata id="CorelCorpID_0Corel-Layer"/>
  <rect class="fil0" x="-0.354" y="0.354" width="669" height="669"/>
  <polygon class="fil1" points="109.251,432.469 132.824,402.39 156.396,432.469 "/>
  <text x="223.338" y="391.063"  class="fil2 fnt0">alans</text>
  <text x="227.894" y="432.726"  class="fil3 fnt1">design</text>
  <text x="378.756" y="432.726"  class="fil3 fnt1">visualization</text>
  <text x="352.715" y="432.726"  class="fil3 fnt1">&amp;</text>
  <g transform="matrix(0.848048 -0.529919 0.529919 0.848048 -341.997 295.055)">
   <text x="334.5" y="334.5"  class="fil2 fnt2">B</text>
  </g>
 </g>
</svg>

<svg xmlns="http://www.w3.org/2000/svg" xml:space="preserve" width="669" height="669" style="shape-rendering:geometricPrecision;text-rendering:geometricPrecision;image-rendering:optimizeQuality;fill-rule:evenodd;clip-rule:evenodd"><defs><style>@font-face{font-family:&quot;Stolzl&quot;;font-variant:normal;font-style:normal;font-weight:400;src:url(#FontID0) format(svg)}.fil2,.fil3{fill:#2b2a29}.fnt1{font-weight:400;font-size:36.117px;font-family:&apos;Stolzl&apos;}</style><font id="FontID0" horiz-adv-x="747" font-variant="normal" style="fill-rule:nonzero" font-style="normal" font-weight="400"><font-face font-family="Stolzl"><font-face-src><font-face-name name="Stolzl-Regular"/></font-face-src></font-face><missing-glyph><path d="M0 0z"/></missing-glyph><glyph unicode="&amp;" horiz-adv-x="721" d="M680.006 0c-45 47.005-86.002 88.998-123.005 128.006 39.008 54 63 121 71.009 191.998H513.003c-6.995-43.998-19.003-79.998-34.998-110.997-54 55.994-97.007 100.995-131.002 137.997 86.002 51.995 152 104.002 152 195.005 0 106.998-85 169.999-189.002 169.999-101.997 0-196.999-60.004-196.999-176.002 0-47.997 18-92.005 73.995-162.001C96.004 319.002 41.002 272.008 41.002 182.007 41.002 51.005 148-11.996 281.007-11.996c79.998 0 149.002 24.995 203.994 65.997 16.006-18 34.006-34.998 52.006-54h143zM308.999 608.006c49.01 0 76.01-28.003 76.01-67 0-41-27-65.996-108-115.997-38.006 47.996-50.002 74.997-50.002 104.002 0 51.995 33.995 78.995 81.992 78.995zm-20.997-516c-87.004 0-132.996 37.994-132.996 92.997 0 43.998 31.991 68.002 100.995 109.003 41.002-45 92.006-98.01 155.006-164.006-36-25.998-78.004-37.994-123.005-37.994z"/><glyph unicode="B" horiz-adv-x="656" d="M499.998 374c63 29 93 75 93 145.999 0 114.999-77 179.998-213 179.998H82V-.001h302c147 0 231.998 75 231.998 197.999 0 85-36.999 152-116 176.001zm-20.999 127.999c0-56.999-30-90-112.001-90H194.999v180h171c81 0 113-29 113-90zm-98-394H195v200h184.999c92 0 122-37 122-100.999 0-60-29-99-121-99z"/><glyph unicode="a" horiz-adv-x="672" d="M493.998 549.998v-94C454 518.998 388 562 301 562 157 562 47.999 443 47.999 275S155.001-12 301.998-12c86.002 0 152.001 41.002 192 104.002v-92h113.001V550H493.998zm-168-453.999c-94.998 0-163.997 73-163.997 179 0 105 67.998 179 163.997 179 96.001 0 169.001-74 169.001-179 0-106.001-73-179-169.001-179z"/><glyph unicode="d" horiz-adv-x="679" d="M501.007 770.007v-314c-41.002 63-106.998 105.996-194.003 105.996-144.001 0-253.004-118.995-253.004-287s106.998-287 254.007-287c86.002 0 151.999 41.993 193 104.002V-.001h113.002v770.007H501.007zM332 96.005c-95.002 0-163.995 72.992-163.995 178.999 0 105.004 68.002 178.999 163.995 178.999 96.004 0 169.007-73.994 169.007-178.999 0-106.007-73.003-178.999-169.007-178.999z"/><glyph unicode="e" horiz-adv-x="654" d="M332 562.003c-166 0-284.003-122.002-284.003-288.002S167.003-11.996 334.005-11.996c117.001 0 222.005 58 265.001 180.993H482.005c-25.998-54-81-81.992-146.997-81.992-92.005 0-163.004 55.994-172.004 157h447.007c10.994 181.004-101.006 317.999-278.01 317.999zm0-97.998c83.005 0 140.002-52.998 157-128.006H168.997C188 410.004 245.999 464.005 332.001 464.005z"/><glyph unicode="g" horiz-adv-x="673" d="M494.001 550.006v-94c-40 63-106.998 105.996-191.998 105.996C157 562.002 47.996 443.007 47.996 278c0-165 107.009-284.005 254.007-284.005 85 0 150.996 42.004 191.998 103V2.997c0-106.998-54.992-163.995-155.997-163.995-74.005 0-135.001 32.993-154.004 104.002H66.999C91.003-194.002 209.998-262.004 341-262.004c163.004 0 266.003 105.004 266.003 268.999v543.011H494.001zM326.007 101.997c-95.002 0-164.006 73.003-164.006 176.002 0 102.008 68.002 176.002 164.006 176.002 95.993 0 168.996-73.995 168.996-176.002 0-103-73.003-176.002-168.996-176.002z"/><glyph unicode="i" horiz-adv-x="244" d="M122.002 798.009c-41.002 0-73.003-29.005-73.003-69.004 0-41.002 32.001-70.998 73.003-70.998 42.995 0 73.995 29.996 73.995 70.998 0 39.999-31 69.004-73.995 69.004zM65.997 0h113.002v550.006H65.997V0z"/><glyph unicode="l" horiz-adv-x="243" d="M67 0h114v769.997H67V0z"/><glyph unicode="n" horiz-adv-x="621" d="M362.999 561.999c-86.002 0-145.001-39-183.999-103.001v91H65.999V0H179v284.998c0 106.001 52 169.001 148.999 169.001 83 0 119.998-45 119.998-130V0h113.001v346.998c0 134.001-74 215.001-197.999 215.001z"/><glyph unicode="o" horiz-adv-x="665" d="M333.002 562.003c-157 0-285.006-121-285.006-287 0-164.006 126.001-287 285.006-287 160.007 0 285.006 122.002 285.006 287 0 166-127.003 287-285.006 287zm0-108.001c95.002 0 171.001-73.003 171.001-178.999 0-106.007-74.997-178.999-171.001-178.999s-171.001 72.992-171.001 178.999c0 105.996 76 178.999 171.001 178.999z"/><glyph unicode="s" horiz-adv-x="583" d="M308.998-12.001c130 0 236.001 58.001 236.001 176 0 107-86.002 133-235 168-95.998 23-130 32.001-130 66.998 0 38.003 43 63 116 63 70 0 112-21.998 127.999-66.997H538c-20.002 99.999-99 166.999-240.002 166.999C160 561.999 66 497.998 66 386.999c0-92.001 64.999-123 218.999-161 92-22.001 144-29.001 144-74.999 0-41.002-45-63-117.999-63-95 0-140 28-157 88.999H39c21-119 124.999-189 269.998-189z"/><glyph unicode="t" horiz-adv-x="521" d="M464.004 119.997c-42.995-14.993-82.003-27-117.001-27-70.998 0-108.001 44.009-108.001 124.007V444h226.004v106.007H239.002v150.005L126 675.006V550.008H24.003V444H126V211c0-151.998 87.996-222.996 200.998-222.996 63 0 127.003 21.999 157.011 39.999l-20.005 91.994z"/><glyph unicode="u" horiz-adv-x="616" d="M439.009 550.006V265c0-105.996-53.009-168.996-147.008-168.996-82.003 0-118.003 45-118.003 130v324.002H60.996V203.002c0-133.999 73.003-214.999 195.005-214.999 85 0 144.001 40 183.009 103V0h112.991v550.006H439.01z"/><glyph unicode="v" horiz-adv-x="581" d="M437.004 550.006 290.007 118.003 144.001 550.006H24.004L222.005 0H359l198.001 550.006H437.004z"/><glyph unicode="z" horiz-adv-x="542" d="M182.998 106.998 498 443.008v106.998H56.997V443.008h296.011L38.997 106.998V0h464.004v106.998H182.998z"/></font></defs><g id="Слой_x0020_1"><path style="fill:#fefefe" d="M-.354.354h669v669h-669z"/><path style="fill:#e31e24" d="m109.251 432.469 23.573-30.079 23.572 30.079z"/><text x="223.338" y="391.063" class="fil2" style="font-weight:400;font-size:139.984px;font-family:'Stolzl'">alans</text><text x="227.894" y="432.726" class="fil3 fnt1">design</text><text x="378.756" y="432.726" class="fil3 fnt1">visualization</text><text x="352.715" y="432.726" class="fil3 fnt1">&amp;</text><text x="334.5" y="334.5" class="fil2" style="font-weight:400;font-size:200.822px;font-family:'Stolzl'" transform="rotate(-32 343.491 743.87)">B</text></g></svg>
